assets/Right arrow/Flat/right_arrow_flat.svg

<svg width="32" height="32" viewBox="0 0 32 32" fill="none" xmlns="http://www.w3.org/2000/svg">
<path d="M2 6C2 3.79086 3.79086 2 6 2H26C28.2091 2 30 3.79086 30 6V26C30 28.2091 28.2091 30 26 30H6C3.79086 30 2 28.2091 2 26V6Z" fill="#00A6ED"/>
<path d="M24.8328 17.0082C25.2054 16.621 25.2054 16.0086 24.8328 15.6214L19.7206 10.3086C19.0964 9.65997 18 10.1018 18 11.002L18 14.0648C18 14.2029 17.8881 14.3148 17.75 14.3148L8 14.3148C7.44772 14.3148 7 14.7625 7 15.3148V17.3148C7 17.8671 7.44772 18.3148 8 18.3148L17.75 18.3148C17.8881 18.3148 18 18.4267 18 18.5648V21.6276C18 22.5278 19.0964 22.9696 19.7206 22.3209L24.8328 17.0082Z" fill="white"/>
</svg>

<svg xmlns="http://www.w3.org/2000/svg" width="32" height="32" fill="none"><path fill="#00A6ED" d="M2 6a4 4 0 0 1 4-4h20a4 4 0 0 1 4 4v20a4 4 0 0 1-4 4H6a4 4 0 0 1-4-4V6Z"/><path fill="#fff" d="M24.833 17.008a1 1 0 0 0 0-1.387L19.72 10.31c-.625-.649-1.721-.207-1.721.693v3.063a.25.25 0 0 1-.25.25H8a1 1 0 0 0-1 1v2a1 1 0 0 0 1 1h9.75a.25.25 0 0 1 .25.25v3.063c0 .9 1.096 1.342 1.72.693l5.113-5.313Z"/></svg>
